X:1
T:James Gibb editions
T:Unam petii - Anerio
T:#
%%score [ 1 2 3 4 ]
L:1/8
Q:1/4=100
M:4/4
K:F
V:1 treble nm="Soprano" snm="S"
V:2 treble nm="Alto" snm="A"
V:3 treble-8 nm="Tenor" snm="T"
V:4 bass nm="Bass" snm="B"
V:1
"^Unam petii""^Giovanni Francesco Anerio\n(1567-1630)" A4 G4 | c3 c c2 c2 | B6 B2 | A4 z2 A2- | %4
w: U- nam|pe- ti- i a|Do- mi-|no, hanc|
 A2 A2 G4- | G4 G2 c2- |[M:4/4] c2 B2 A3 A | G8 | z2 A2 c4 | B3 B A2 A2 | G2 F2 E3 E | F4 z2 A2- | %12
w: * re- qui\-|* ram, ut|* in- ha- bi-|tem,|ut in-|ha- bi- tem in|do- mo Do- mi-|ni o\-|
 AAAA G2 G2 | G2 F2 B4 | A2 A3 AAA | G2 G2 F4 | E2 (F4 E2) | F4 z2 c2- | cccc B2 B2 | A2 A2 G4 | %20
w: * mni- bus di- e- bus|vi- tae me-|ae, o- mni- bus di-|e- bus vi-|tae me\- *|ae, om\-|* ni- bus di- e- bus|vi- tae me-|
 A4 z2 A2 | B2 BB d2 c2 | B2 A2 G3 G | A4 z2 G2 | A2 AA c2 c2 | d2 _e2 d3 d | c4 z2 c2 | %27
w: ae; ut|vi- de- am vo- lu-|pta- tem Do- mi-|ni, ut|vi- de- am vo- lu-|pta- tem Do- mi-|ni, et|
 A2 AA A2 G2 | (^F G2 F) G2 B2 | A2 AA A2 G2 | A4 A2 B2 | G2 GG G2 F2 | G4 || !fermata!A8 |] %34
w: vi- si- tem tem- plum|e\- * * jus, et|vi- si- tem tem- plum|e- jus, et|vi- si- tem tem- plum|e-|jus.|
V:2
 F4 E2 G2- | GG G2 E2 (F2- | FE DE/F/ G3) G | C4 z2 F2- | F2 F2 (E4 | D4) E2 E2 |[M:4/4] G4 F3 F | %7
w: U- nam pe\-|* ti- i a Do\-|* * * * * * mi-|no, hanc|* re- qui\-|* ram, ut|in- ha- bi-|
 E2 c4 B2 | A6 A2 | F6 c2 | c2 A2 A3 A | A8 | z8 | z8 | z4 z2 c2- | cccc B2 B2 | A2 A2 G4 | %17
w: tem, ut in-|ha- bi-|tem in|do- mo Do- mi-|ni|||o\-|* mni- bus di- e- bus|vi- tae me-|
 F2 A3 AAA | G2 G2 F4 | E2 (F4 E2) | F4 z2 F2 | F2 FF F2 F2 | G2 c2 c3 c | c4 z2 c2 | c2 cc A2 G2 | %25
w: ae, o- mni- bus di-|e- bus vi-|tae me\- *|ae; ut|vi- de- am vo- lu-|pta- tem Do- mi-|ni, ut|vi- de- am vo- lu-|
 F2 G2 G3 G | G4 z2 G2 | ^F2 FF F2 G2 | A4 G2 G2 | E2 EE ^C2 D2 | E4 F2 F2 | E2 EE E2 F2 | %32
w: pta- tem Do- mi-|ni, et|vi- si- tem tem- plum|e- jus, et|vi- si- tem tem- plum|e- jus, et|vi- si- tem tem- plum|
 (E>D E2) || !fermata!F8 |] %34
w: e\- * *|jus.|
V:3
 c4 c4 | e3 e g2 c2 | (de f4) e2 | f4 z2 c2- | cA (d3 c c2- | c2 =B2) c4- |[M:4/4][K:treble-8] c8 | %7
w: U- nam|pe- ti- i a|Do\- * * mi-|no, hanc|* re- qui\- * *|* * ram,||
 z2 c2 e4 | f3 f c2 c2 | d3 d c2 f2 | e2 d2 (^c d2) c | d2 f3 fff | e2 e2 d4 | c2 (f4 e2) | %14
w: ut in-|ha- bi- tem, in-|ha- bi- tem, in|do- mo Do\- * mi-|ni o- mni- bus di-|e- bus vi-|tae me\- *|
 f2 f3 fff | e2 e2 d2 d2 | c8 | F2 c3 ccd | _e2 c2 dD F2 | c8- | c4 z2 c2 | d2 dd B2 c2 | %22
w: ae, o- mni- bus di-|e- bus vi- tae|me-|ae, o- mni- bus di-|e- bus vi- tae me-|ae;|* ut|vi- de- am vo- lu-|
 d2 f2 e3 e | f4 z2 e2 | f2 ff F2 G2 | A2 c2 =B3 B | c4 z2 c2 | d2 dd d2 _e2 | d4 G2 d2 | %29
w: pta- tem Do- mi-|ni, ut|vi- de- am vo- lu-|pta- tem Do- mi-|ni, et|vi- si- tem tem- plum|e- jus, et|
 ^c2 cc e2 d2 | (^c d2 c) d2 d2 | c2 cc c2 A2 | c4 || !fermata!c8 |] %34
w: vi- si- tem tem- plum|e\- * * jus, et|vi- si- tem tem- plum|e-|jus.|
V:4
 F,4 C,4 | C3 C C2 A,2 | (B,3 A, G,2) G,2 | F,4 z2 F,2- | F,2 D,2 (E,3 F, | G,4) C,2 C,2 | %6
w: U- nam|pe- ti- i a|Do\- * * mi-|no, hanc|* re- qui\- *|* ram, ut|
[M:4/4] E,4 F,3 F, | C,8 | z2 F,2 A,4 | B,3 B, F,2 F,2 | C2 D2 A,3 A, | D,2 D3 DDD | %12
w: in- ha- bi-|tem,|ut in-|ha- bi- tem in|do- mo Do- mi-|ni o- mni- bus di-|
 C2 C2 B,2 B,2 | (A,4 G,4) | F,8 | z8 | z8 | z2 F,3 F,F,F, | _E,2 E,2 D,2 D,2 | C,8 | F,4 z2 F,2 | %21
w: e- bus vi- tae|me\- *|ae,|||o- mni- bus di-|e- bus vi- tae|me-|ae; ut|
 B,2 B,B, B,2 A,2 | G,2 F,2 C3 C | F,4 z2 C2 | F,2 F,F, F,2 E,2 | D,2 C,2 G,3 G, | C,4 z4 | z8 | %28
w: vi- de- am vo- lu-|pta- tem Do- mi-|ni, ut|vi- de- am vo- lu-|pta- tem Do- mi-|ni,||
 z4 z2 G,2 | A,2 A,A, A,2 B,2 | A,4 D,2 B,,2 | C,2 C,C, C,2 D,2 | C,4 || !fermata!F,8 |] %34
w: et|vi- si- tem tem- plum|e- jus, et|vi- si- tem tem- plum|e-|jus.|

